polaris-icons/icons/OrderDraftFilledIcon.svg

<svg xmlns="http://www.w3.org/2000/svg" viewBox="0 0 20 20"><path d="M6.97553 4.99999C6.35593 4.99999 5.82983 5.45388 5.73903 6.0668L5.15633 9.99999H7.63962C8.17766 9.99999 8.65533 10.3443 8.82547 10.8547L8.98359 11.329C9.01762 11.4311 9.11315 11.5 9.22076 11.5H10.7792C10.8868 11.5 10.9824 11.4311 11.0164 11.329L11.1745 10.8547C11.3447 10.3443 11.8223 9.99999 12.3604 9.99999H14.8437L14.7581 9.4224C14.6974 9.01266 14.9803 8.63129 15.3901 8.57058C15.7998 8.50988 16.1812 8.79283 16.2419 9.20257L16.4055 10.3071C16.4684 10.7316 16.5 11.1602 16.5 11.5894V13.25C16.5 15.0449 15.0449 16.5 13.25 16.5H6.75C4.95507 16.5 3.5 15.0449 3.5 13.25V11.5894C3.5 11.1602 3.53158 10.7316 3.59447 10.3071L4.25522 5.84698C4.45499 4.49856 5.6124 3.49999 6.97553 3.49999H10.75C11.1642 3.49999 11.5 3.83577 11.5 4.24999C11.5 4.6642 11.1642 4.99999 10.75 4.99999H6.97553Z"/>
<path d="M16.4541 2.35354C16.2589 2.15828 15.9423 2.15828 15.747 2.35354L14.7899 3.31065L16.5577 5.07842L17.5148 4.12131C17.7101 3.92604 17.7101 3.60946 17.5148 3.4142L16.4541 2.35354Z"/>
<path d="M15.8506 5.78553L14.0828 4.01776L11.2522 6.84834C10.8934 7.20719 10.6844 7.68903 10.6675 8.19624L10.6419 8.96826C10.6371 9.11277 10.7556 9.2312 10.9001 9.22641L11.6721 9.2008C12.1793 9.18397 12.6611 8.97496 13.02 8.61611L15.8506 5.78553Z"/>
</svg>

<svg xmlns="http://www.w3.org/2000/svg" viewBox="0 0 20 20"><path d="M6.976 5c-.62 0-1.146.454-1.237 1.067l-.583 3.933h2.484c.538 0 1.015.344 1.185.855l.159.474c.034.102.13.171.237.171h1.558c.108 0 .203-.069.237-.171l.159-.474c.17-.51.647-.855 1.185-.855h2.484l-.086-.578c-.06-.41.222-.79.632-.851.41-.061.791.222.852.632l.163 1.104c.063.425.095.853.095 1.282v1.661c0 1.795-1.455 3.25-3.25 3.25h-6.5c-1.795 0-3.25-1.455-3.25-3.25v-1.66c0-.43.032-.858.094-1.283l.661-4.46c.2-1.348 1.357-2.347 2.72-2.347h3.775c.414 0 .75.336.75.75s-.336.75-.75.75h-3.774Z"/><path d="M16.454 2.354c-.195-.196-.512-.196-.707 0l-.957.957 1.768 1.767.957-.957c.195-.195.195-.512 0-.707l-1.06-1.06Z"/><path d="m15.85 5.786-1.767-1.768-2.83 2.83c-.36.36-.569.841-.585 1.348l-.026.772c-.005.145.114.263.258.258l.772-.025c.507-.017.99-.226 1.348-.585l2.83-2.83Z"/></svg>
